X:1
T:Lo, country sports - Weelkes
T:#
%%score [ 1 2 3 4 ]
L:1/8
Q:1/4=140
M:4/4
K:C
V:1 treble nm="Soprano" snm="S"
V:2 treble nm="Alto" snm="A"
V:3 treble-8 nm="Tenor" snm="T"
V:4 bass nm="Bass" snm="B"
V:1
 z2 G2 F2 E2 |"^Lo, Country Sports" D4 z2 G2 | G3 (F E4) |"^Thomas Weelkes\n(1574-1623)" D4 z4 | %4
w: Lo coun- try|sports, that|sel- dom *|fades,|
[M:4/4] z2 G2 E2 F2 | D3 D C2 c2 | A2 B2 c2 A2 | G8 | G2 F2 c4 | z2 A2 A2 G2 | A3 _B c4 | %11
w: a gar- land|of the Spring, a|gar- land of the|Spring,|of the Spring,|a prize for|dan- cing coun-|
 A2 G4 C2 | D3 D E3 F | G2 G2 G2 C2 | D3 D EE F2- | F2 D2 D2 D2 | D8 | z4 z2 G2 | G3 F E2 D2 | %19
w: try maids, with|mer- ry, mer- ry|pipes we bring, with|mer- ry, mer- ry pipes|* we bring, we|bring.|Then|all at once for|
 E2 (D2 E4) | F2 G2 c3 _B | A2 G2 F2 E2 | F2 C2 D3 D | E2 E2 F2 G2 | E2 C2 D3 D | C2 E2 F2 G2 | %26
w: our town *|cries, then all at|once for our town|cries, for our town|cries; Pipe on for|we will have the|prize, pipe on for|
 E2 C2 D3 D | C4 z2 G2- | G2 F2 A2 G2 | G2 c2 d3 B | c2 A2 F2 G2 | G8 | E4 F2 E2 | D2 (C2 D4) | %34
w: we will have the|prize, we|* will have the|prize, pipe on for|we will have the|prize,|for we will|have the *|
 E2 E2 F2 G2 | E2 C2 D3 D | C2 E2 F2 G2 | E2 C2 D3 D | C4 z2 G2- | G2 F2 A2 G2 | G2 c2 d3 B | %41
w: prize: then all at|once for our town|cries, then all at|once for our town|cries, all|* for our town|cries; pipe on for|
 c2 A2 F2 G2 | G8 | E4 F4- | F4 E4 | D6 D2 | !fermata!E8 |] %47
w: we will have the|prize,|for we|* will|have the|prize.|
V:2
 z8 | z2 G2 F2 E2 | D4 z2 G2 | G3 (F E4) |[M:4/4] D4 z4 | z2 G2 E2 F2 | D3 D C2 F2- | F2 (E2 D4) | %8
w: |Lo coun- try|sports, that|sel- dom *|fades,|a gar- land|of the Spring, of|* the *|
 E2 A2 A2 G2 | A3 _B c4 | (A2 F2) E2 C2 | D3 D E3 F | G2 G2 G2 C2 | D3 D E3 F | G2 G2 G2 A2- | %15
w: Spring, a prize for|dan- cing coun-|try * maids, with|mer- ry, mer- ry|pipes we bring, with|mer- ry, mer- ry|pipes we bring, mer\-|
 AAGG ^F3 F | G4 z2 G2 | G3 F E2 D2 | C2 B,2 C2 G2 | G2 G2 C2 G2 | c3 _B A2 G2 | F2 E2 F2 C2- | %22
w: * ry, mer- ry pipes we|bring. Then|all at once for|our town cries, for|our town cries, then|all at once for|our town cries, for|
 C2 C4 B,2 | C4 z4 | z2 E2 F2 G2 | E2 C2 D3 D | C2 E2 F2 G2 | E2 E2 F2 D2 | E2 C2 F2 D2 | E4 D4 | %30
w: * our town|cries;|Pipe on for|we will have the|prize, pipe on for|we will have the|prize, for we will|have the|
 E2 c2 d3 B | c4 _B4 | A8 | G8 | G4 z4 | z2 E2 F2 G2 | E2 C2 D3 D | C2 E2 F2 G2 | E3 E F2 D2 | %39
w: prize, pipe on for|we will|have|the|prize:|then all at|once for our town|cries, then all at|once for our town|
 E2 C2 F2 D2 | E3 E D2 D2 | E2 c2 d3 B | c4 _B4 | A8 | G8- | G8 | !fermata!G8 |] %47
w: cries, then all at|once for our town|cries, pipe on for|we will|have|the||prize.|
V:3
 G4 A2 c2 | c2 B2 c4 | G4 C2 c2 | B3 B c2 A2 |[M:4/4][K:treble-8] F2 G2 C2 c2 | A2 B2 c2 A2 | %6
w: Lo coun- try|sports, that sel-|dom fades, a|gar- land of the|Spring, the Spring, a|gar- land of the|
 F2 G2 C2 c2 | B2 (c4 B2) | c8 | z2 F2 F2 E2 | F2 D2 C3 C | F2 z2 z2 c2 | c2 B2 c2 A2 | %13
w: Spring, a gar- land|of the *|Spring,|a prize for|dan- cing coun- try|maids, with|mer- ry, mer- ry|
 G3 G C2 c2 | c2 B2 c4- | c2 _B2 A3 A | !courtesy!=B8 | z2 g2 g3 f | e2 d2 c2 B2 | c2 G2 c3 _B | %20
w: pipes we bring, with|mer- ry, mer\-|* ry pipes we|bring.|Then all at|once for our town|cries, then all at|
 A2 G2 F2 E2 | F2 C2 F2 (AG) | FG A3 (G F2) | G2 c2 A2 B2 | c2 A2 D2 G2 | C2 c2 A2 B2 | %26
w: once for our town|cries, then all at *|once for our town *|cries; Pipe on for|we will have the|prize, pipe on for|
 c2 A2 D2 G2 | C2 c2 d3 B | c2 A2 F2 G2 | C2 c2 A2 G2- | G2 A2 z2 d2 | e3 c d2 d2 | c4 (d2 c2) | %33
w: we will have the|prize, pipe on for|we will have the|prize, well have the|* prize, pipe|on for we will|have the *|
 B2 (c4 B2) | c2 c2 A2 B2 | c2 A2 D2 G2 | C2 c2 A2 B2 | c2 A2 D2 G2 | C2 c2 d3 B | c2 A2 F2 G2 | %40
w: prize, the *|prize: then all at|once for our town|cries, then all at|once for our town|cries; pipe on for|we will have the|
 C2 c2 A2 G2- | G2 A2 z2 d2 | e3 c d4 | c4 d4- | d4 (c4- | c4 B4) | !fermata!c8 |] %47
w: prize, well have the|* prize, pipe|on for we|will have|* the||prize.|
V:4
 z8 | G,4 A,2 C2 | C2 B,2 C4 | G,4 C,2 C2 |[M:4/4] A,2 B,2 C2 A,2 | F,2 G,2 C,2 z2 | %6
w: |Lo coun- try|sports, that sel-|dom fades, a|gar- land of the|Spring, the Spring,|
 z2 G,2 E,2 F,2 | G,4 G,4 | C,2 F,2 F,2 E,2 | F,2 D,2 C,3 C, | F,4 z2 C2 | C2 B,2 C2 A,2 | %12
w: a gar- land|of the|Spring, a prize for|danc- ing coun- try|maids, with|mer- ry, mer- ry|
 G,3 G, C,2 C2 | C2 B,2 C2 A,2 | G,3 G, C,2 F,2- | F,2 G,2 D,3 D, | G,2 G,2 G,3 F, | %17
w: pipes we bring, with|mer- ry mer- ry|pipes we bring, mer\-|* ry pipes we|bring. Then all at|
 E,2 D,2 C,2 B,,2 | C,2 z4 G,2 | C3 _B, A,2 G,2 | F,2 E,2 F,2 C,2 | F,2 G,2 A,_B, (CB, | %22
w: once for our town|cries, then|all at once for|our town cries, then|all at once for our *|
 A,G,F,E,) D,4 | C,4 z4 | z2 C2 A,2 B,2 | C2 A,2 D,2 G,2 | C,2 C2 A,2 B,2 | C2 A,2 D,2 G,2 | %28
w: * * * * town|cries;|Pipe on for|we will have the|prize, pipe on for|we will have the|
 C,2 C2 D3 B, | C2 A,2 F,2 G,2 | C,2 F,2 D,2 G,2 | C,4 G,4 | A,4 (F,4 | G,8) | C,4 z4 | %35
w: prize, pipe on for|we will have the|prize, pipe on for|we will|have the||prize:|
 z2 C2 A,2 B,2 | C2 A,2 D,2 G,2 | C,2 C2 A,2 B,2 | C2 A,2 D,2 G,2 | C,2 C2 D3 B, | C2 A,2 F,2 G,2 | %41
w: then all at|once for our town|cries, then all at|once for our town|cries; pipe on for|we will have the|
 C,2 F,2 D,2 G,2 | C,4 G,4 | A,4 (F,4 | G,8- | G,8) | !fermata!C,8 |] %47
w: prize, pipe on for|we will|have the|||prize.|

